src/components/00-materials/images-raw/Glas Vitrine.svg

<svg width="96" height="96" viewBox="0 0 96 96" fill="none" xmlns="http://www.w3.org/2000/svg">
<path d="M56.4406 48.3701L44.5254 58.6821" stroke="#00008F" stroke-width="2" stroke-miterlimit="10" stroke-linecap="round"/>
<path d="M63.0301 51.5181L55.233 58.4651" stroke="#00008F" stroke-width="2" stroke-miterlimit="10" stroke-linecap="round"/>
<path d="M43.8122 15.2627L31.897 25.5747" stroke="#00008F" stroke-width="2" stroke-miterlimit="10" stroke-linecap="round"/>
<path d="M50.4002 18.4111L42.6031 25.3581" stroke="#00008F" stroke-width="2" stroke-miterlimit="10" stroke-linecap="round"/>
<path d="M24.8433 85.5C24.8433 86.0523 25.291 86.5 25.8433 86.5C26.3956 86.5 26.8433 86.0523 26.8433 85.5H24.8433ZM69.4567 85.5C69.4567 86.0523 69.9044 86.5 70.4567 86.5C71.009 86.5 71.4567 86.0523 71.4567 85.5H69.4567ZM69.9166 75.2262H26.3834V77.2262H69.9166V75.2262ZM26.3834 75.2262C26.5036 75.2262 26.6086 75.2703 26.6881 75.3433C26.778 75.4257 26.8433 75.5543 26.8433 75.6953H24.8433C24.8433 76.6455 25.644 77.2262 26.3834 77.2262V75.2262ZM26.8433 12.3073C26.8433 12.4404 26.7923 12.5516 26.717 12.6308C26.6326 12.7198 26.5096 12.7764 26.3834 12.7764V10.7764C25.4589 10.7764 24.8433 11.5389 24.8433 12.3073H26.8433ZM26.3834 12.7764H69.9166V10.7764H26.3834V12.7764ZM69.9166 12.7764C69.7964 12.7764 69.6914 12.7322 69.6119 12.6592C69.522 12.5768 69.4567 12.4483 69.4567 12.3073H71.4567C71.4567 11.357 70.656 10.7764 69.9166 10.7764V12.7764ZM69.4768 75.4959C69.486 75.4506 69.5039 75.4123 69.5425 75.3717C69.5826 75.3294 69.7076 75.2262 69.9166 75.2262V77.2262C70.3956 77.2262 70.7636 76.9902 70.9928 76.7488C71.2204 76.5092 71.3734 76.2054 71.4366 75.8947L69.4768 75.4959ZM24.8433 75.6953V85.5H26.8433V75.6953H24.8433ZM69.4567 75.6953V85.5H71.4567V75.6953H69.4567ZM26.8433 28.8V12.3073H24.8433V28.8H26.8433ZM69.4567 12.3073V28.8H71.4567V12.3073H69.4567ZM25.8433 29.8H70.4567V27.8H25.8433V29.8ZM26.8433 45.6V28.8H24.8433V45.6H26.8433ZM69.4567 28.8V45.6H71.4567V28.8H69.4567ZM25.8433 46.6H70.4567V44.6H25.8433V46.6ZM26.8433 75.6953V61.8H24.8433V75.6953H26.8433ZM26.8433 61.8V45.6H24.8433V61.8H26.8433ZM69.4567 45.6V61.8H71.4567V45.6H69.4567ZM69.4567 61.8V75.6953H71.4567V61.8H69.4567ZM25.8433 62.8H70.4567V60.8H25.8433V62.8Z" fill="#00008F"/>
</svg>

<svg width="96" height="96" viewBox="0 0 96 96" fill="none" xmlns="http://www.w3.org/2000/svg"><path d="M56.44 48.37L44.526 58.682M63.03 51.518l-7.797 6.947M43.812 15.263L31.897 25.575M50.4 18.411l-7.797 6.947" stroke="#00008F" stroke-width="2" stroke-miterlimit="10" stroke-linecap="round"/><path d="M24.843 85.5a1 1 0 102 0h-2zm44.614 0a1 1 0 102 0h-2zm.46-10.274H26.383v2h43.534v-2zm-43.534 0c.12 0 .226.044.305.117.09.083.155.211.155.352h-2c0 .95.801 1.531 1.54 1.531v-2zm.46-62.919a.464.464 0 01-.46.47v-2c-.924 0-1.54.762-1.54 1.53h2zm-.46.47h43.534v-2H26.383v2zm43.534 0a.445.445 0 01-.305-.118.485.485 0 01-.155-.352h2c0-.95-.801-1.53-1.54-1.53v2zm-.44 62.719a.238.238 0 01.066-.124.518.518 0 01.374-.146v2c.479 0 .847-.236 1.076-.477.227-.24.38-.544.444-.854l-1.96-.4zm-44.634.2V85.5h2v-9.805h-2zm44.614 0V85.5h2v-9.805h-2zM26.843 28.8V12.307h-2V28.8h2zm42.614-16.493V28.8h2V12.307h-2zM25.843 29.8h44.614v-2H25.843v2zm1 15.8V28.8h-2v16.8h2zm42.614-16.8v16.8h2V28.8h-2zM25.843 46.6h44.614v-2H25.843v2zm1 29.095V61.8h-2v13.895h2zm0-13.895V45.6h-2v16.2h2zm42.614-16.2v16.2h2V45.6h-2zm0 16.2v13.895h2V61.8h-2zm-43.614 1h44.614v-2H25.843v2z" fill="#00008F"/></svg>
